X: 7986
T: Conlon's
R: jig
M: 6/8
K: Dmajor
|:A|d2 B AFA|BdB AFA|def ede|faf edB|
d2 B AFA|BdB AFA|def ede|fdd d2:|
e|fdf afa|b3 afd|dff ede|faf ecA|
[1 def afa|b3 afe|def ede|fdd d2:|
[2 d2 B AFA|BdB AFA|def ede|fdd d2||

